X: 21362
Q: "Andante."
M: 3/4
L: 1/8
K: D
(d2 c)d ge | (d2 c)z d2 |\
(d2 c)z d2 | BA (A2 G/F/G/E/) |\
(F2 E)f gf | (f2 e2) zf/g/ |\
aB {d}c3 (B/A/) | Ad z |]\
(a/g/) fg | (f2 e)(f/e/) de |\
(d2 c2) z(d/c/) | BA A3 G |\
(d2 c2) z(d/c/) | BA (A>B A)G |
(ag f)e fd | (gf e2) d2 |\
cA z!f!(a/g/) fg | (f2 e)(f/e/) de |\
(d2 Hc2) zf/g/ | ad gf ed | Ad z |]



